;FLAVOR:Marlin
;TIME:9599
;Filament used: 3.26899m
;Layer height: 0.12
;MINX:115.739
;MINY:6.613
;MINZ:0.12
;MAXX:217.069
;MAXY:52.186
;MAXZ:9.96
;Generated with Cura_SteamEngine 4.8.0
M140 S60
M105
M190 S60
M104 S220
M105
M109 S220
M82 ;absolute extrusion mode
; Ender 3 Custom Start G-code
G92 E0 ; Reset Extruder
G28 ; Home all axes
G1 Z2.0 F3000 ; Move Z Axis up little to prevent scratching of Heat Bed
G1 X0.1 Y20 Z0.3 F5000.0 ; Move to start position
G1 X0.1 Y200.0 Z0.3 F1500.0 E15 ; Draw the first line
G1 X0.4 Y200.0 Z0.3 F5000.0 ; Move to side a little
G1 X0.4 Y20 Z0.3 F1500.0 E30 ; Draw the second line
G92 E0 ; Reset Extruder
G1 Z2.0 F3000 ; Move Z Axis up little to prevent scratching of Heat Bed
G1 X5 Y20 Z0.3 F5000.0 ; Move over to prevent blob squish
G92 E0
G92 E0
G1 F2700 E-5
;LAYER_COUNT:83
;LAYER:0
M107
G0 F6000 X115.779 Y11.733 Z0.12
;TYPE:SKIRT
G1 F2700 E0
G1 F1200 X115.898 Y11.063 E0.01358
G1 X116.095 Y10.411 E0.02717
G1 F1350 X194.811 Y19.017 E283.27841
G0 F7500 X194.811 Y18.451
G1 F1350 X189.626 Y23.636 E283.42474
G0 F7500 X189.626 Y23.07
G1 F1350 X194.811 Y17.886 E283.57106
G0 F7500 X194.811 Y17.32
G1 F1350 X189.626 Y22.505 E283.71739
G0 F7500 X189.626 Y21.939
G1 F1350 X194.811 Y16.754 E283.86373
G0 F7500 X194.811 Y16.189
G1 F1350 X189.626 Y21.373 E284.01004
G0 F7500 X189.626 Y20.808
G1 F1350 X194.811 Y15.623 E284.15638
G0 F7500 X194.811 Y15.057
G1 F1350 X189.626 Y20.242 E284.30271
G0 F7500 X189.626 Y19.676
G1 F1350 X194.811 Y14.492 E284.44903
G0 F7500 X194.811 Y13.926
G1 F1350 X189.626 Y19.11 E284.59534
G0 F7500 X189.626 Y18.545
G1 F1350 X194.609 Y13.563 E284.73596
G0 F7500 X194.043 Y13.563
G1 F1350 X189.626 Y17.979 E284.8606
G0 F7500 X189.626 Y17.413
G1 F1350 X193.477 Y13.563 E284.96927
G0 F7500 X192.912 Y13.563
G1 F1350 X189.626 Y16.848 E285.062
G0 F7500 X189.626 Y16.282
G1 F1350 X192.346 Y13.563 E285.13875
G0 F7500 X191.78 Y13.563
G1 F1350 X189.626 Y15.716 E285.19952
G0 F7500 X189.626 Y15.151
G1 F1350 X191.215 Y13.563 E285.24435
G0 F7500 X190.649 Y13.563
G1 F1350 X189.626 Y14.585 E285.27321
G0 F7500 X189.626 Y14.019
G1 F1350 X190.083 Y13.563 E285.2861
G0 F7500 X190.083 Y13.123
G0 X195.18 Y13.195
G0 X195.534 Y26.084
G0 X200.034 Y26.366
G0 X200.034 Y26.805
G1 F1350 X195.423 Y31.416 E285.41623
G0 F7500 X195.989 Y31.416
G1 F1350 X200.599 Y26.805 E285.54635
G0 F7500 X201.165 Y26.805
G1 F1350 X196.555 Y31.416 E285.67646
G0 F7500 X197.12 Y31.416
G1 F1350 X201.731 Y26.805 E285.8066
G0 F7500 X202.296 Y26.805
G1 F1350 X197.686 Y31.416 E285.93671
G0 F7500 X198.252 Y31.416
G1 F1350 X202.862 Y26.805 E286.06683
G0 F7500 X203.428 Y26.805
G1 F1350 X198.817 Y31.416 E286.19697
G0 F7500 X199.383 Y31.416
G1 F1350 X203.993 Y26.805 E286.32708
G0 F7500 X204.559 Y26.805
G1 F1350 X199.949 Y31.416 E286.4572
G0 F7500 X200.514 Y31.416
G1 F1350 X205.125 Y26.805 E286.58733
G0 F7500 X205.69 Y26.805
G1 F1350 X201.08 Y31.416 E286.71745
G0 F7500 X201.646 Y31.416
G1 F1350 X206.256 Y26.805 E286.84757
G0 F7500 X206.822 Y26.805
G1 F1350 X202.212 Y31.416 E286.97769
G0 F7500 X202.777 Y31.416
G1 F1350 X207.388 Y26.805 E287.10782
G0 F7500 X207.953 Y26.805
G1 F1350 X203.343 Y31.416 E287.23794
G0 F7500 X203.909 Y31.416
G1 F1350 X208.519 Y26.805 E287.36806
G0 F7500 X208.966 Y26.924
G1 F1350 X204.474 Y31.416 E287.49483
G0 F7500 X205.04 Y31.416
G1 F1350 X208.966 Y27.49 E287.60563
G0 F7500 X208.966 Y28.055
G1 F1350 X205.606 Y31.416 E287.70047
G0 F7500 X206.171 Y31.416
G1 F1350 X208.966 Y28.621 E287.77935
G0 F7500 X208.966 Y29.187
G1 F1350 X206.737 Y31.416 E287.84226
G0 F7500 X207.303 Y31.416
G1 F1350 X208.966 Y29.752 E287.88921
G0 F7500 X208.966 Y30.318
G1 F1350 X207.868 Y31.416 E287.9202
G0 F7500 X208.434 Y31.416
G1 F1350 X208.966 Y30.884 E287.93521
G0 F7500 X209.317 Y30.884
G1 F2700 E282.93521
;MESH:NONMESH
G0 F300 X209.317 Y30.884 Z0.36
G0 F7500 X209.407 Y30.884
G0 X209.335 Y26.438
G0 X195.18 Y26.438
G0 X195.18 Y13.195
G0 X189.259 Y13.195
G0 X188.897 Y27.89
G0 X187.812 Y27.89
G0 X182.844 Y11.76
G0 X157.594 Y11.76
G0 X157.58 Y29.138
G0 X144.433 Y29.682
G0 X145.89 Y29.691
G0 X145.595 Y27.89
;TIME_ELAPSED:8921.804899
;LAYER:80
;TYPE:WALL-INNER
;MESH:DEF.stl
G1 F2700 E3020.43661
G1 F1500 X145.589 Y27.785 E3020.43871
G1 X145.559 Y27.625 E3020.44195
G1 X145.505 Y27.345 E3020.44765
G1 X145.494 Y27.286 E3020.44884
G1 X145.261 Y26.079 E3020.47337
G1 X144.722 Y24.561 E3020.50552
G1 X143.986 Y23.23 E3020.53587
G1 X143.064 Y22.086 E3020.56519
G1 X141.975 Y21.125 E3020.59418
G1 X140.74 Y20.344 E3020.62334
G1 X139.377 Y19.731 E3020.65316
G1 X137.898 Y19.273 E3020.68406
G1 X136.321 Y18.959 E3020.71615
G1 X134.655 Y18.78 E3020.74959
G1 X132.921 Y18.722 E3020.78421
G1 X128.425 Y18.722 E3020.87393
G1 X128.425 Y26.503 E3021.02921
G1 X128.425 Y26.794 E3021.03502
G1 X128.425 Y27.098 E3021.04109
G1 X128.425 Y27.149 E3021.0421
G1 X128.401 Y27.098
G1 X128.219 Y26.794 E3021.04467
G1 X128.046 Y26.561 E3021.04913
G1 X128.009 Y26.511 E3021.05037
G1 X127.772 Y26.249 E3021.05742
G1 X127.508 Y26.011 E3021.06451
G1 X127.226 Y25.802 E3021.07152
G1 X126.924 Y25.619 E3021.07856
G1 X126.603 Y25.468 E3021.08564
G1 X126.27 Y25.349 E3021.0927
G1 X125.928 Y25.264 E3021.09973
G1 X125.579 Y25.211 E3021.10678
G1 X125.225 Y25.195 E3021.11385
G1 X124.871 Y25.211 E3021.12092
G1 X124.523 Y25.264 E3021.12795
G1 X124.181 Y25.348 E3021.13497
G1 X123.846 Y25.468 E3021.14208
G1 X123.526 Y25.62 E3021.14914
G1 X123.226 Y25.802 E3021.15615
G1 X122.942 Y26.011 E3021.16318
G1 X122.679 Y26.249 E3021.17026
G1 X122.525 Y26.419 E3021.17484
G1 X122.441 Y26.511 E3021.17733
G1 X122.232 Y26.794 E3021.18435
G1 X122.139 Y26.948 E3021.18794
G1 X122.139 Y26.794 E3021.18818
G1 X122.139 Y26.511 E3021.19079
G1 X122.139 Y26.386 E3021.193
G1 X122.139 Y13.013 E3021.45988
G1 X133.745 Y13.013 E3021.69149
G1 X136.218 Y13.134 E3021.7409
G1 X138.589 Y13.491 E3021.78875
G1 X140.85 Y14.08 E3021.83537
G1 X142.973 Y14.896 E3021.88076
G1 X144.953 Y15.942 E3021.92545
G1 X146.74 Y17.203 E3021.96909
G1 X148.323 Y18.685 E3022.01237
G1 X149.674 Y20.378 E3022.05559
G1 X150.767 Y22.284 E3022.09944
G1 X151.585 Y24.411 E3022.14492
G1 X152.017 Y26.39 E3022.18534
G1 X152.07 Y26.635 E3022.19034
G1 X152.094 Y26.743 E3022.19255
G1 X152.109 Y26.968 E3022.19705
G1 X152.122 Y27.143 E3022.20055
G1 X152.02 Y26.975 E3022.20127
G1 X151.936 Y26.861 E3022.20182
G1 X151.811 Y26.692 E3022.2047
G1 X151.643 Y26.506 E3022.20888
G1 X151.573 Y26.429 E3022.21096
G1 X151.311 Y26.191 E3022.21803
G1 X151.026 Y25.981 E3022.22509
G1 X150.724 Y25.8 E3022.23212
G1 X150.405 Y25.649 E3022.23916
G1 X150.072 Y25.53 E3022.24622
G1 X149.729 Y25.444 E3022.25327
G1 X149.381 Y25.393 E3022.26029
G1 X149.027 Y25.374 E3022.26737
G1 X148.673 Y25.392 E3022.27444
G1 X148.324 Y25.444 E3022.28148
G1 X147.982 Y25.53 E3022.28852
G1 X147.649 Y25.649 E3022.29558
G1 X147.331 Y25.8 E3022.3026
G1 X147.027 Y25.981 E3022.30966
G1 X146.743 Y26.191 E3022.31671
G1 X146.48 Y26.429 E3022.32379
G1 X146.243 Y26.692 E3022.33085
G1 X146.033 Y26.975 E3022.33789
;TYPE:SKIN
G1 F1500 X195 Y19.072 E3097.51013
G0 F9000 X195.135 Y18.924
G1 F1500 X195.201 Y18.99 E3097.51106
G0 F9000 X195.252 Y18.99
G0 X192.92 Y19.767
G0 X191.943 Y19.815
G0 X191.174 Y19.622
G0 X189.568 Y19.03
G0 X189.427 Y19.156
G1 F1500 X189.236 Y18.965 E3097.51376
G0 F9000 X189.187 Y18.964
G0 X189.286 Y40.458
G0 X192.297 Y38.433
G0 X195.168 Y39.339
G0 X195.252 Y39.034
G0 X195.163 Y39.034
G1 F1500 X195.201 Y39.072 E3097.51429
G0 F9000 X194.976 Y39.129
G1 F1500 X195.198 Y39.351 E3097.51743
G0 F9000 X195.192 Y39.394
G0 X192.992 Y38.863
G0 X192.015 Y38.911
G0 X191.268 Y39.178
G0 X189.544 Y40.186
G0 X189.501 Y40.16
G1 F1500 X189.255 Y39.914 E3097.5209
G0 F9000 X189.24 Y40.182
G1 F1500 X189.395 Y40.336 E3097.52308
G0 F9000 X189.24 Y40.465
G1 F1500 X189.276 Y40.501 E3097.52358
G0 F9000 X189.277 Y40.517
G0 X188.947 Y16.165
G0 X189.08 Y15.627
G0 X189.654 Y13.86
G0 X189.467 Y13.652
;TYPE:SKIN
G1 F1500 X189.467 Y13.403 E3097.52855
G1 X189.742 Y13.403 E3097.53404
G1 X189.467 Y13.652 E3097.54145
G0 F9000 X189.506 Y13.86
;TYPE:SKIN
G1 F1500 X189.547 Y13.901 E3097.54202
G0 F9000 X189.412 Y14.05
G1 F1500 X189.235 Y13.873 E3097.54452
G0 F9000 X189.235 Y14.156
G1 F1500 X189.274 Y14.195 E3097.54507
G0 F9000 X189.258 Y14.218
G0 X190.024 Y13.542
G0 X189.994 Y13.5
G1 F1500 X189.947 Y13.453 E3097.54573
G0 F9000 X190.157 Y13.38
G1 F1500 X189.95 Y13.173 E3097.54866
G0 F9000 X190.232 Y13.173
G1 F1500 X190.331 Y13.272 E3097.55005
G0 F9000 X190.357 Y13.317
G0 X191.905 Y13.184
G0 X194.798 Y13.123
G0 X194.798 Y13.403
;TYPE:SKIN
G1 F1500 X194.972 Y13.403 E3097.55353
G1 X194.972 Y13.56 E3097.55666
G1 X194.798 Y13.403 E3097.56134
G0 F9000 X194.636 Y13.333
;TYPE:SKIN
G1 F1500 X194.475 Y13.173 E3097.5636
G0 F9000 X194.455 Y13.436
G1 F1500 X194.192 Y13.173 E3097.56731
G0 F9000 X194.124 Y13.197
G0 X194.893 Y13.865
G0 X195.028 Y13.726
G1 F1500 X195.201 Y13.899 E3097.56975
G0 F9000 X195.549 Y14.813
G1 F1500 X195.439 Y14.985 E3097.57276
G1 X195.491 Y15.32 E3097.57774
G0 F9000 X195.562 Y15.415
G0 X195.587 Y16.551
G0 X195.492 Y17.568
G0 X195.526 Y17.618
G1 F1500 X195.489 Y17.864 E3097.58192
G1 X195.432 Y18.089 E3097.58583
G0 F9000 X195.327 Y17.973
G0 X195.594 Y16.819
G0 X195.545 Y15.841
G0 X195.216 Y14.918
G0 X194.631 Y14.129
G0 X193.993 Y13.658
G0 X193.008 Y13.12
G0 X192.841 Y12.954
G1 F1500 X192.577 Y12.972 E3097.59164
G1 X191.719 Y12.963 E3097.61048
G1 X191.585 Y13.111 E3097.61487
G0 F9000 X191.647 Y13.151
G0 X192.958 Y12.813
G0 X192.958 Y12.788
G1 F1500 X193.038 Y12.867 E3097.61599
G0 F9000 X190.992 Y13.407
G0 X190.152 Y13.911
G0 X189.62 Y14.497
G0 X189.128 Y15.191
G0 X189.025 Y15.077
G1 F1500 X188.963 Y15.297 E3097.61912
G1 X188.903 Y15.803 E3097.62608
G0 F9000 X188.933 Y15.853
G0 X188.89 Y16.922
G0 X188.911 Y16.943
G1 F1500 X188.926 Y17.24 E3097.62936
G1 X188.976 Y17.856 E3097.63618
G0 F9000 X188.877 Y17.731
G0 X189.286 Y40.458
G0 X192.297 Y38.433
G0 X193.869 Y38.903
G0 X195.287 Y40.006
G1 F1500 X195.384 Y40.103 E3097.63755
G0 F9000 X195.863 Y41.218
G0 X196.006 Y42.187
G0 X195.863 Y43.156
G0 X195.443 Y44.042
G0 X193.856 Y45.93
G0 X193.896 Y45.969
G1 F1500 X193.613 Y45.969 E3097.63978
G1 X193.047 Y45.969 E3097.64425
G1 X192.748 Y45.67 E3097.64759
G1 X192.481 Y45.969 E3097.65076
G0 F9000 X192.442 Y45.93
G0 X190.548 Y44.769
G0 X189.889 Y44.042
G0 X189.651 Y43.541
G0 X189.168 Y42.372
G0 X189.009 Y42.213
G1 F1500 X189.182 Y42.104 E3097.65402
G1 X188.877 Y42.364 E3097.66041
G0 F9000 X188.972 Y42.346
G1 F2700 E3092.66041
;MESH:NONMESH
G0 F300 X188.972 Y42.346 Z9.84
G0 F9000 X188.797 Y40.075
G0 X187.812 Y40.075
G0 X181.98 Y47.038
G0 X157.594 Y47.038
G0 X150.681 Y39.563
G0 X149.829 Y39.071
G0 X151.4 Y34.67
G0 X151.92 Y32.147
G0 X151.94 Y31.411
G0 X148.658 Y32.729
G0 X145.811 Y30.991
G0 X144.116 Y35.634
G0 X139.571 Y39.133
G0 X138.515 Y39.52
G0 X128.425 Y40.075
;TIME_ELAPSED:9599.136741
G1 F2700 E3263.99178
M140 S0
M107
G91 ;Relative positioning
G1 E-2 F2700 ;Retract a bit
G1 E-2 Z0.2 F2400 ;Retract and raise Z
G1 X5 Y5 F3000 ;Wipe out
G1 Z10 ;Raise Z more
G90 ;Absolute positionning

G1 X0 Y220 ;Present print
M106 S0 ;Turn-off fan
M104 S0 ;Turn-off hotend
M140 S0 ;Turn-off bed

M84 X Y E ;Disable all steppers but Z

M82 ;absolute extrusion mode
M104 S0
;End of Gcode
;SETTING_3 {"global_quality": "[general]\\nversion = 4\\nname = Super Quality #2
;SETTING_3 \\ndefinition = creality_ender3\\n\\n[metadata]\\nquality_type = supe
;SETTING_3 r\\nsetting_version = 16\\ntype = quality_changes\\n\\n[values]\\nadh
;SETTING_3 esion_type = brim\\nmaterial_bed_temperature_layer_0 = 60\\n\\n", "ex
;SETTING_3 truder_quality": ["[general]\\nversion = 4\\nname = Super Quality #2\
;SETTING_3 \ndefinition = creality_ender3\\n\\n[metadata]\\nquality_type = super
;SETTING_3 \\nsetting_version = 16\\nposition = 0\\ntype = quality_changes\\n\\n
;SETTING_3 [values]\\nbottom_layers = 3\\nbrim_width = 6\\ninfill_pattern = tria
;SETTING_3 ngles\\nmaterial_print_temperature_layer_0 = 220\\ntop_layers = 3\\nw
;SETTING_3 all_line_count = 2\\n\\n"]}
