;FLAVOR:Marlin
;TIME:9599
;Filament used: 3.26899m
;Layer height: 0.12
;MINX:115.739
;MINY:6.613
;MINZ:0.12
;MAXX:217.069
;MAXY:52.186
;MAXZ:9.96
;Generated with Cura_SteamEngine 4.8.0
M140 S60
M105
M190 S60
M104 S220
M105
M109 S220
M82 ;absolute extrusion mode
; Ender 3 Custom Start G-code
G92 E0 ; Reset Extruder
G28 ; Home all axes
G1 Z2.0 F3000 ; Move Z Axis up little to prevent scratching of Heat Bed
G1 X0.1 Y20 Z0.3 F5000.0 ; Move to start position
G1 X0.1 Y200.0 Z0.3 F1500.0 E15 ; Draw the first line
G1 X0.4 Y200.0 Z0.3 F5000.0 ; Move to side a little
G1 X0.4 Y20 Z0.3 F1500.0 E30 ; Draw the second line
G92 E0 ; Reset Extruder
G1 Z2.0 F3000 ; Move Z Axis up little to prevent scratching of Heat Bed
G1 X5 Y20 Z0.3 F5000.0 ; Move over to prevent blob squish
G92 E0
G92 E0
G1 F2700 E-5
;LAYER_COUNT:83
;LAYER:0
M107
G0 F6000 X115.779 Y11.733 Z0.12
;TYPE:SKIRT
G1 F2700 E0
G1 F1200 X115.898 Y11.063 E0.01358
G1 X116.095 Y10.411 E0.02717
G1 X116.367 Y9.787 E0.04076
G1 X116.711 Y9.199 E0.05435
G1 X117.121 Y8.655 E0.06795
G1 X117.592 Y8.164 E0.08152
G1 X118.117 Y7.73 E0.09512
G1 X118.689 Y7.361 E0.1087
G1 X119.301 Y7.062 E0.12229
G1 X119.943 Y6.837 E0.13587
G1 X120.608 Y6.688 E0.14947
G1 X121.539 Y6.613 E0.16811
G1 X133.79 Y6.613 E0.41259
G1 X134.077 Y6.62 E0.41832
G1 X136.578 Y6.744 E0.46829
G1 X137.157 Y6.802 E0.4799
G1 X139.586 Y7.169 E0.52893
G1 X140.183 Y7.292 E0.54109
G1 X142.492 Y7.894 E0.58871
G1 X143.113 Y8.093 E0.60172
G1 X145.323 Y8.944 E0.64898
G1 X145.951 Y9.23 E0.66275
G1 X147.978 Y10.302 E0.70851
G1 X148.611 Y10.691 E0.72334
G1 X150.475 Y12.007 E0.76887
G1 X151.094 Y12.511 E0.7848
G1 X152.447 Y13.778 E0.8218
G1 X152.447 Y12.413 E0.84904
G1 X152.487 Y11.733 E0.86263
G1 X152.606 Y11.063 E0.87621
G1 X152.803 Y10.411 E0.8898
G1 X153.075 Y9.787 E0.90339
G1 X153.419 Y9.199 E0.91698
G1 X153.829 Y8.655 E0.93057
G1 X154.3 Y8.164 E0.94415
G1 X154.825 Y7.73 E0.95775
G1 X155.397 Y7.361 E0.97133
G1 X156.009 Y7.062 E0.98492
G1 X156.651 Y6.837 E0.9985
G1 X157.316 Y6.688 E1.0121
G1 X158.247 Y6.613 E1.03074
G1 X182.191 Y6.613 E1.50857
G1 X182.871 Y6.653 E1.52216
G1 X183.541 Y6.772 E1.53574
G1 X184.193 Y6.969 E1.54933
G1 X184.817 Y7.241 E1.56292
G1 X185.339 Y7.547 E1.57499
G1 X185.627 Y7.361 E1.58183
G1 X186.239 Y7.062 E1.59542
G1 X186.881 Y6.837 E1.609
G1 X187.546 Y6.688 E1.6226
G1 X188.477 Y6.613 E1.64124
G1 X195.962 Y6.613 E1.79061
G1 X196.642 Y6.653 E1.8042
G1 X197.312 Y6.772 E1.81778
G1 X197.964 Y6.969 E1.83138
G1 X198.588 Y7.241 E1.84496
G1 X199.176 Y7.585 E1.85856
G1 X199.72 Y7.995 E1.87215
G1 X200.211 Y8.466 E1.88573
G1 X200.645 Y8.991 E1.89932
G1 X201.014 Y9.563 E1.9129
G1 X201.313 Y10.175 E1.9265
G1 X201.538 Y10.817 E1.94007
G1 X201.687 Y11.482 E1.95367
G1 X201.762 Y12.413 E1.97231
G1 X201.762 Y19.856 E2.12085
G1 X210.117 Y19.856 E2.28758
G1 X210.797 Y19.896 E2.30117
G1 X211.467 Y20.015 E2.31475
G1 X212.119 Y20.212 E2.32834
G1 X212.743 Y20.484 E2.34193
G1 X213.331 Y20.828 E2.35552
G1 X213.875 Y21.238 E2.36912
G1 X214.366 Y21.709 E2.3827
G1 X214.8 Y22.234 E2.39629
G1 X215.169 Y22.806 E2.40987
G1 X215.468 Y23.418 E2.42347
G1 X215.693 Y24.06 E2.43704
G1 X215.842 Y24.725 E2.45064
G1 X215.917 Y25.656 E2.46928
G1 X215.917 Y32.566 E2.60718
G1 X215.877 Y33.246 E2.62077
G1 X215.758 Y33.916 E2.63435
G1 X215.561 Y34.568 E2.64794
G1 X215.289 Y35.192 E2.66153
G1 X215.245 Y35.267 E2.66326
G1 X215.518 Y35.528 E2.6708
G1 X215.952 Y36.053 E2.68439
G1 X216.321 Y36.625 E2.69798
G1 X216.62 Y37.237 E2.71157
G1 X216.845 Y37.879 E2.72515
G1 X216.994 Y38.544 E2.73875
G1 X217.069 Y39.475 E2.75738
G1 X217.069 Y46.385 E2.89528
G1 X217.029 Y47.065 E2.90887
G1 X216.91 Y47.735 E2.92245
G1 X216.713 Y48.387 E2.93605
G1 X216.441 Y49.011 E2.94963
G1 X216.097 Y49.599 E2.96323
G1 X215.687 Y50.143 E2.97682
G1 X215.216 Y50.634 E2.9904
G1 X214.691 Y51.068 E3.00399
G1 X214.119 Y51.437 E3.01758
G1 X213.507 Y51.736 E3.03117
G1 X212.865 Y51.961 E3.04474
G1 X212.2 Y52.11 E3.05834
G1 X211.269 Y52.185 E3.07698
G1 X188.477 Y52.185 E3.53182
G1 X187.797 Y52.145 E3.54542
G1 X187.127 Y52.026 E3.559
G1 X186.475 Y51.829 E3.57259
G1 X185.851 Y51.557 E3.58617
G1 X185.263 Y51.213 E3.59977
G1 X184.902 Y50.941 E3.60879
G1 X184.749 Y51.068 E3.61275
G1 X184.177 Y51.437 E3.62634
G1 X183.565 Y51.736 E3.63993
G1 X182.923 Y51.961 E3.65351
G1 X182.258 Y52.11 E3.66711
G1 X181.327 Y52.185 E3.68575
G1 X158.247 Y52.185 E4.14633
G1 X157.567 Y52.145 E4.15993
G1 X156.897 Y52.026 E4.17351
G1 X156.245 Y51.829 E4.1871
G1 X155.621 Y51.557 E4.20068
G1 X155.033 Y51.213 E4.21428
G1 X154.489 Y50.803 E4.22787
G1 X153.998 Y50.332 E4.24145
G1 X153.564 Y49.807 E4.25504
G1 X153.195 Y49.235 E4.26863
G1 X152.896 Y48.623 E4.28222
G1 X152.671 Y47.981 E4.2958
G1 X152.522 Y47.316 E4.3094
G1 X152.447 Y46.385 E4.32803
G1 X152.447 Y45.385 E4.34799
G1 X150.732 Y46.878 E4.39337
G1 X150.034 Y47.399 E4.41075
G1 X148.093 Y48.632 E4.45664
G1 X147.402 Y49.007 E4.47233
G1 X145.262 Y49.989 E4.51932
G1 X144.614 Y50.241 E4.53319
G1 X142.281 Y50.989 E4.58208
G1 X141.702 Y51.142 E4.59403
G1 X139.231 Y51.661 E4.64442
G1 X138.712 Y51.746 E4.65492
G1 X136.134 Y52.047 E4.70671
G1 X135.674 Y52.082 E4.71592
G1 X132.98 Y52.181 E4.76972
G1 X132.768 Y52.185 E4.77395
G1 X121.54 Y52.186 E4.99802
G1 X120.86 Y52.146 E5.01161
G1 X120.189 Y52.027 E5.02521
G1 X119.538 Y51.83 E5.03878
G1 X118.914 Y51.558 E5.05237
G1 X118.326 Y51.214 E5.06596
G1 X117.782 Y50.805 E5.07954
G1 X117.29 Y50.334 E5.09313
G1 X116.857 Y49.809 E5.10672
G1 X116.488 Y49.236 E5.12032
G1 X116.188 Y48.625 E5.1339
G1 X115.963 Y47.982 E5.14749
G1 X115.814 Y47.318 E5.16107
G1 X115.739 Y46.386 E5.17973
G1 X115.739 Y12.413 E5.8577
G1 X115.779 Y11.733 E5.8713
G0 F6000 X116.179 Y11.757
G1 F1200 X116.298 Y11.111 E5.8844
G1 X116.495 Y10.484 E5.89752
G1 X116.767 Y9.886 E5.91063
G1 X117.109 Y9.325 E5.92374
G1 X117.517 Y8.81 E5.93685
G1 X117.984 Y8.348 E5.94996
G1 X118.504 Y7.947 E5.96307
G1 X119.068 Y7.611 E5.97617
G1 X119.67 Y7.347 E5.98929
G1 X120.299 Y7.157 E6.0024
G1 X120.946 Y7.046 E6.0155
G1 X121.539 Y7.013 E6.02735
G1 X133.79 Y7.013 E6.27183
G1 X134.057 Y7.02 E6.27716
G1 X136.558 Y7.144 E6.32713
G1 X137.098 Y7.198 E6.33796
G1 X139.527 Y7.565 E6.38699
G1 X140.082 Y7.679 E6.3983
G1 X142.391 Y8.281 E6.44591
G1 X142.969 Y8.467 E6.45803
G1 X145.179 Y9.318 E6.50529
G1 X145.764 Y9.583 E6.51811
G1 X147.791 Y10.655 E6.56387
G1 X148.38 Y11.018 E6.57767
G1 X150.244 Y12.334 E6.62321
G1 X150.821 Y12.803 E6.63805
G1 X152.457 Y14.335 E6.68277
G1 X152.847 Y14.757 E6.69424
G1 X152.847 Y12.413 E6.74102
G1 X152.887 Y11.757 E6.75413
G1 X153.006 Y11.111 E6.76724
G1 X153.203 Y10.484 E6.78036
G1 X153.475 Y9.886 E6.79347
G1 X153.817 Y9.325 E6.80658
G1 X154.225 Y8.81 E6.81969
G1 X154.692 Y8.348 E6.8328
G1 X155.212 Y7.947 E6.84591
G1 X155.776 Y7.611 E6.85901
G1 X156.378 Y7.347 E6.87213
G1 X157.007 Y7.157 E6.88524
G1 X157.654 Y7.046 E6.89834
G1 X158.247 Y7.013 E6.91019
G1 X182.191 Y7.013 E7.38802
G1 X182.847 Y7.053 E7.40113
G1 X183.493 Y7.172 E7.41424
G1 X184.12 Y7.369 E7.42736
G1 X184.718 Y7.641 E7.44047
G1 X185.279 Y7.983 E7.45358
G1 X185.336 Y8.028 E7.45503
G1 X185.442 Y7.947 E7.45769
G1 X186.006 Y7.611 E7.47079
G1 X186.608 Y7.347 E7.48391
G1 X187.237 Y7.157 E7.49702
G1 X187.884 Y7.046 E7.51012
G1 X188.477 Y7.013 E7.52198
G1 X195.962 Y7.013 E7.67135
G1 X196.618 Y7.053 E7.68446
G1 X197.264 Y7.172 E7.69757
G1 X197.891 Y7.369 E7.71069
G1 X198.489 Y7.641 E7.7238
G1 X199.05 Y7.983 E7.73691
G1 X199.565 Y8.391 E7.75002
G1 X200.027 Y8.858 E7.76313
G1 X200.428 Y9.378 E7.77623
G1 X200.764 Y9.942 E7.78934
G1 X201.028 Y10.544 E7.80245
G1 X201.218 Y11.173 E7.81557
G1 X201.329 Y11.82 E7.82867
G1 X201.362 Y12.413 E7.84052
G1 X201.362 Y20.256 E7.99703
G1 X210.117 Y20.256 E8.17175
G1 X210.773 Y20.296 E8.18486
G1 X211.419 Y20.415 E8.19797
G1 X212.046 Y20.612 E8.21109
G1 X212.644 Y20.884 E8.2242
G1 X213.205 Y21.226 E8.23731
G1 X213.72 Y21.634 E8.25042
G1 X214.182 Y22.101 E8.26353
G1 X214.583 Y22.621 E8.27664
G1 X214.919 Y23.185 E8.28974
G1 X215.183 Y23.787 E8.30286
G1 X215.373 Y24.416 E8.31597
G1 X215.484 Y25.063 E8.32907
G1 X215.517 Y25.656 E8.34092
G1 X215.517 Y32.566 E8.47882
G1 X215.477 Y33.222 E8.49193
G1 X215.358 Y33.868 E8.50504
G1 X215.161 Y34.495 E8.51816
G1 X214.889 Y35.093 E8.53127
G1 X214.735 Y35.345 E8.53716
G1 X214.872 Y35.453 E8.54064
G1 X215.334 Y35.92 E8.55375
G1 X215.735 Y36.44 E8.56686
G1 X216.071 Y37.004 E8.57996
G1 X216.335 Y37.606 E8.59307
G1 X216.525 Y38.235 E8.60619
G1 X216.636 Y38.882 E8.61929
G1 X216.669 Y39.475 E8.63114
G1 X216.669 Y46.385 E8.76904
G1 X216.629 Y47.041 E8.78215
G1 X216.51 Y47.687 E8.79526
G1 X216.313 Y48.314 E8.80838
G1 X216.041 Y48.912 E8.82149
G1 X215.699 Y49.473 E8.8346
G1 X215.291 Y49.988 E8.84771
G1 X214.824 Y50.45 E8.86082
G1 X214.304 Y50.851 E8.87392
G1 X213.74 Y51.187 E8.88702
G1 X213.138 Y51.451 E8.90014
G1 X212.509 Y51.641 E8.91325
G1 X211.862 Y51.752 E8.92636
G1 X211.269 Y51.785 E8.93821
G1 X188.477 Y51.785 E9.39305
G1 X187.821 Y51.745 E9.40616
G1 X187.175 Y51.626 E9.41927
G1 X186.548 Y51.429 E9.43239
G1 X185.95 Y51.157 E9.4455
G1 X185.389 Y50.815 E9.45861
G1 X184.903 Y50.43 E9.47098
G1 X184.882 Y50.45 E9.47156
G1 X184.362 Y50.851 E9.48466
G1 X183.798 Y51.187 E9.49777
G1 X183.196 Y51.451 E9.51088
G1 X182.567 Y51.641 E9.524
G1 X181.92 Y51.752 E9.5371
G1 X181.327 Y51.785 E9.54895
G1 X158.247 Y51.785 E10.00953
G1 X157.591 Y51.745 E10.02265
G1 X156.945 Y51.626 E10.03576
G1 X156.318 Y51.429 E10.04887
G1 X155.72 Y51.157 E10.06198
G1 X155.159 Y50.815 E10.0751
G1 X154.644 Y50.407 E10.08821
G1 X154.182 Y49.94 E10.10132
G1 X153.781 Y49.42 E10.11442
G1 X153.445 Y48.856 E10.12752
G1 X153.181 Y48.254 E10.14064
G1 X152.991 Y47.625 E10.15375
G1 X152.88 Y46.978 E10.16685
G1 X152.847 Y46.385 E10.17871
G1 X152.847 Y44.394 E10.21844
G1 X152.796 Y44.456 E10.22004
G1 X152.18 Y45.087 E10.23764
G1 X150.469 Y46.576 E10.2829
G1 X149.819 Y47.061 E10.29909
G1 X147.878 Y48.294 E10.34498
G1 X147.235 Y48.644 E10.35959
G1 X145.095 Y49.626 E10.40657
G1 X144.492 Y49.86 E10.41948
G1 X142.159 Y50.608 E10.46837
G1 X141.62 Y50.751 E10.4795
G1 X139.149 Y51.27 E10.52989
G1 X138.665 Y51.349 E10.53968
G1 X136.087 Y51.65 E10.59147
G1 X135.659 Y51.682 E10.60004
G1 X132.965 Y51.781 E10.65383
G1 X132.767 Y51.785 E10.65779
G1 X121.539 Y51.786 E10.88185
G1 X120.884 Y51.746 E10.89495
G1 X120.238 Y51.627 E10.90806
G1 X119.611 Y51.43 E10.92117
G1 X119.013 Y51.159 E10.93428
G1 X118.452 Y50.816 E10.9474
G1 X117.937 Y50.409 E10.9605
G1 X117.475 Y49.942 E10.97361
G1 X117.073 Y49.422 E10.98672
G1 X116.737 Y48.857 E10.99984
G1 X116.473 Y48.256 E11.01294
G1 X116.283 Y47.627 E11.02605
G1 X116.172 Y46.979 E11.03917
G1 X116.139 Y46.386 E11.05103
G1 X116.139 Y12.413 E11.72899
G1 X116.179 Y11.757 E11.74211
G0 F6000 X116.579 Y11.782
G1 F1200 X116.698 Y11.161 E11.75473
G1 X116.895 Y10.561 E11.76733
G1 X117.166 Y9.989 E11.77996
G1 X117.506 Y9.457 E11.79256
G1 X117.912 Y8.972 E11.80518
G1 X118.375 Y8.542 E11.81779
G1 X118.889 Y8.173 E11.83042
G1 X119.445 Y7.873 E11.84303
G1 X120.034 Y7.645 E11.85563
G1 X120.648 Y7.493 E11.86825
G1 X121.539 Y7.413 E11.88611
G1 X133.79 Y7.413 E12.13059
G1 X134.038 Y7.419 E12.13554
G1 X136.539 Y7.543 E12.18551
G1 X137.038 Y7.593 E12.19552
G1 X139.467 Y7.96 E12.24454
G1 X139.981 Y8.066 E12.25501
G1 X142.29 Y8.668 E12.30263
G1 X142.826 Y8.84 E12.31387
G1 X145.036 Y9.691 E12.36113
G1 X145.577 Y9.937 E12.37299
G1 X147.604 Y11.009 E12.41875
G1 X148.15 Y11.344 E12.43153
G1 X150.014 Y12.66 E12.47706
G1 X150.548 Y13.095 E12.49081
G1 X152.184 Y14.627 E12.53554
G1 X152.676 Y15.161 E12.55003
G1 X153.247 Y15.877 E12.5683
G1 X153.247 Y12.413 E12.63743
G1 X153.287 Y11.782 E12.65005
G1 X153.406 Y11.161 E12.66267
G1 X153.603 Y10.561 E12.67527
G1 X153.874 Y9.989 E12.6879
G1 X154.214 Y9.457 E12.7005
G1 X154.62 Y8.972 E12.71312
G1 X155.083 Y8.542 E12.72573
G1 X155.597 Y8.173 E12.73836
G1 X156.153 Y7.873 E12.75097
G1 X156.742 Y7.645 E12.76357
G1 X157.356 Y7.493 E12.77619
G1 X158.247 Y7.413 E12.79405
G1 X182.191 Y7.413 E13.27188
G1 X182.822 Y7.453 E13.28449
G1 X183.443 Y7.572 E13.29711
G1 X184.043 Y7.769 E13.30971
G1 X184.615 Y8.04 E13.32234
G1 X185.147 Y8.38 E13.33494
G1 X185.328 Y8.531 E13.33965
G1 X185.827 Y8.173 E13.3519
G1 X186.383 Y7.873 E13.36451
G1 X186.972 Y7.645 E13.37712
G1 X187.586 Y7.493 E13.38974
G1 X188.477 Y7.413 E13.40759
G1 X195.962 Y7.413 E13.55696
G1 X196.593 Y7.453 E13.56958
G1 X197.214 Y7.572 E13.5822
G1 X197.814 Y7.769 E13.5948
G1 X198.386 Y8.04 E13.60743
G1 X198.918 Y8.38 E13.62003
G1 X199.403 Y8.786 E13.63265
G1 X199.833 Y9.249 E13.64526
G1 X200.202 Y9.763 E13.65789
G1 X200.502 Y10.319 E13.6705
G1 X200.73 Y10.908 E13.6831
G1 X200.882 Y11.522 E13.69573
G1 X200.962 Y12.413 E13.71358
G1 X200.962 Y20.656 E13.87808
G1 X210.117 Y20.656 E14.06077
G1 X210.748 Y20.696 E14.07339
G1 X211.369 Y20.815 E14.08601
G1 X211.969 Y21.012 E14.09861
G1 X212.541 Y21.283 E14.11124
G1 X213.073 Y21.623 E14.12384
G1 X213.558 Y22.029 E14.13646
G1 X213.988 Y22.492 E14.14907
G1 X214.357 Y23.006 E14.1617
G1 X214.657 Y23.562 E14.17431
G1 X214.885 Y24.151 E14.18691
G1 X215.037 Y24.765 E14.19954
G1 X215.117 Y25.656 E14.21739
G1 X215.117 Y32.566 E14.35529
G1 X215.077 Y33.197 E14.3679
G1 X214.958 Y33.818 E14.38052
G1 X214.761 Y34.418 E14.39312
G1 X214.49 Y34.99 E14.40575
G1 X214.208 Y35.431 E14.4162
G1 X214.225 Y35.442 E14.4166
G1 X214.71 Y35.848 E14.42923
G1 X215.14 Y36.311 E14.44184
G1 X215.509 Y36.825 E14.45446
G1 X215.809 Y37.381 E14.46707
G1 X216.037 Y37.97 E14.47968
G1 X216.189 Y38.584 E14.4923
G1 X216.269 Y39.475 E14.51015
G1 X216.269 Y46.385 E14.64805
G1 X216.229 Y47.016 E14.66067
G1 X216.11 Y47.637 E14.67328
G1 X215.913 Y48.237 E14.68589
G1 X215.642 Y48.809 E14.69852
G1 X215.302 Y49.341 E14.71112
G1 X214.896 Y49.826 E14.72374
G1 X214.433 Y50.256 E14.73635
G1 X213.919 Y50.625 E14.74898
G1 X213.363 Y50.925 E14.76158
G1 X212.774 Y51.153 E14.77419
G1 X212.16 Y51.305 E14.78681
G1 X211.269 Y51.385 E14.80466
G1 X188.477 Y51.385 E15.2595
G1 X187.846 Y51.345 E15.27212
G1 X187.225 Y51.226 E15.28474
G1 X186.625 Y51.029 E15.29734
G1 X186.053 Y50.758 E15.30997
G1 X185.521 Y50.418 E15.32257
G1 X185.036 Y50.012 E15.33519
G1 X184.905 Y49.871 E15.33903
G1 X184.491 Y50.256 E15.35032
G1 X183.977 Y50.625 E15.36294
G1 X183.421 Y50.925 E15.37555
G1 X182.832 Y51.153 E15.38815
G1 X182.218 Y51.305 E15.40078
G1 X181.327 Y51.385 E15.41863
G1 X158.247 Y51.385 E15.87922
G1 X157.616 Y51.345 E15.89183
G1 X156.995 Y51.226 E15.90445
G1 X156.395 Y51.029 E15.91705
G1 X155.823 Y50.758 E15.92969
G1 X155.291 Y50.418 E15.94229
G1 X154.806 Y50.012 E15.95491
G1 X154.376 Y49.549 E15.96752
G1 X154.007 Y49.035 E15.98014
G1 X153.707 Y48.479 E15.99275
G1 X153.479 Y47.89 E16.00536
G1 X153.327 Y47.276 E16.01798
G1 X153.247 Y46.385 E16.03583
G1 X153.247 Y43.282 E16.09776
G1 X152.487 Y44.201 E16.12155
G1 X151.917 Y44.786 E16.13785
G1 X150.206 Y46.275 E16.18312
G1 X149.605 Y46.723 E16.19808
G1 X147.664 Y47.956 E16.24397
G1 X147.068 Y48.28 E16.2575
G1 X144.928 Y49.262 E16.30449
G1 X144.37 Y49.479 E16.31644
G1 X142.037 Y50.227 E16.36533
G1 X141.538 Y50.359 E16.37563
G1 X139.067 Y50.878 E16.42602
G1 X138.619 Y50.951 E16.43508
G1 X136.041 Y51.252 E16.48687
G1 X135.645 Y51.283 E16.4948
G1 X132.951 Y51.382 E16.5486
G1 X132.767 Y51.385 E16.55227
G1 X121.539 Y51.386 E16.77634
G1 X120.909 Y51.346 E16.78894
G1 X120.288 Y51.227 E16.80155
G1 X119.687 Y51.03 E16.81418
G1 X119.116 Y50.76 E16.82678
G1 X118.583 Y50.419 E16.83941
G1 X118.098 Y50.014 E16.85202
G1 X117.668 Y49.551 E16.86463
G1 X117.3 Y49.037 E16.87724
G1 X116.999 Y48.481 E16.88986
G1 X116.771 Y47.891 E16.90248
G1 X116.619 Y47.277 E16.9151
G1 X116.539 Y46.386 E16.93296
G1 X116.539 Y12.413 E17.61092
G1 X116.579 Y11.782 E17.62354
G0 F6000 X116.979 Y11.808
G1 F1200 X117.098 Y11.214 E17.63563
G1 X117.294 Y10.64 E17.64774
G1 X117.565 Y10.097 E17.65985
G1 X117.904 Y9.594 E17.67195
G1 X118.306 Y9.141 E17.68404
G1 X118.764 Y8.744 E17.69613
G1 X119.271 Y8.411 E17.70824
G1 X119.817 Y8.147 E17.72034
G1 X120.393 Y7.958 E17.73244
G1 X120.989 Y7.846 E17.74454
G1 X121.539 Y7.813 E17.75554
G1 X133.79 Y7.813 E18.00002
G1 X134.018 Y7.819 E18.00457
G1 X136.519 Y7.943 E18.05454
G1 X136.978 Y7.989 E18.06375
